static/images/coinomi-logo.svg

<svg height="1024" viewBox="0 0 1024 1024" width="1024" xmlns="http://www.w3.org/2000/svg" xmlns:xlink="http://www.w3.org/1999/xlink"><linearGradient id="a" x1="33.939224%" x2="66.167046%" y1="6.067337%" y2="94.223116%"><stop offset="0" stop-color="#f89200"/><stop offset="1" stop-color="#00bef2"/></linearGradient><linearGradient id="b" x1="50%" x2="50%" y1="99.622449%" y2="-.147959%"><stop offset="0" stop-color="#f89200"/><stop offset="1" stop-color="#cc1f25"/></linearGradient><linearGradient id="c" x1="9.2%" x2="91.275862%" y1="90.8%" y2="8.717241%"><stop offset="0" stop-color="#f89200"/><stop offset="1" stop-color="#aaa"/></linearGradient><linearGradient id="d" x1="0%" x2="100.18%" y1="50%" y2="50%"><stop offset="0" stop-color="#f89200"/><stop offset="1" stop-color="#3273e2"/></linearGradient><linearGradient id="e" x1="3.845819%" x2="96.079933%" y1="33.617186%" y2="66.386931%"><stop offset="0" stop-color="#f89200"/><stop offset="1" stop-color="#a680d0"/></linearGradient><linearGradient id="f" x1="6.286301%" x2="94.108219%" y1="57.67591%" y2="42.254818%"><stop offset="0" stop-color="#00bef2"/><stop offset="1" stop-color="#a680d0"/></linearGradient><linearGradient id="g" x1="96.857143%" x2="3.266234%" y1="47.21039%" y2="52.782324%"><stop offset="0" stop-color="#ff4c9f"/><stop offset="1" stop-color="#a680d0"/></linearGradient><linearGradient id="h" x1="95.094737%" x2="5.026316%" y1="41.870676%" y2="58.107629%"><stop offset="0" stop-color="#5cd551"/><stop offset="1" stop-color="#ce0003"/></linearGradient><linearGradient id="i" x1="48.9335%" x2="51.0665%" y1="97.617%" y2="2.377%"><stop offset="0" stop-color="#aaa"/><stop offset=".184" stop-color="#a2aea1"/><stop offset=".484" stop-color="#8dba89"/><stop offset=".861" stop-color="#6acd61"/><stop offset="1" stop-color="#5cd551"/></linearGradient><linearGradient id="j" x1="96.65322%" x2="3.287119%" y1="60.230227%" y2="39.877742%"><stop offset="0" stop-color="#f8bf00"/><stop offset="1" stop-color="#5cd551"/></linearGradient><linearGradient id="k" x1="99.581071%" x2=".498929%" y1="49.726824%" y2="50.272755%"><stop offset="0" stop-color="#f8bf00"/><stop offset=".6" stop-color="#b6ad91"/><stop offset="1" stop-color="#aaa"/></linearGradient><linearGradient id="l" x1="48.897655%" x2="51.182212%" y1="1.671257%" y2="98.491617%"><stop offset="0" stop-color="#3273e2"/><stop offset=".99" stop-color="#a680d0"/></linearGradient><linearGradient id="m" x1="31.946518%" x2="68.072004%" y1="7.311834%" y2="92.731953%"><stop offset="0" stop-color="#aaa"/><stop offset="1" stop-color="#3273e2"/></linearGradient><linearGradient id="n" x1="52.030758%" x2="47.971772%" y1="3.194118%" y2="96.752941%"><stop offset="0" stop-color="#f8bf00"/><stop offset="1" stop-color="#00bc9b"/></linearGradient><linearGradient id="o" x1="98.195122%" x2="1.99187%" y1="49.275616%" y2="50.808038%"><stop offset="0" stop-color="#00bc9b"/><stop offset=".99" stop-color="#3273e2"/></linearGradient><linearGradient id="p" x1="47.455219%" x2="52.550069%" y1="3.881301%" y2="96.214634%"><stop offset="0" stop-color="#00bc9b"/><stop offset="1" stop-color="#ff4c9f"/></linearGradient><g fill="none"><path d="m511.609184 0c-282.543748 0-511.609184 229.065436-511.609184 511.609184 0 282.543747 229.065436 511.609186 511.609184 511.609186 282.543747 0 511.609186-229.065439 511.609186-511.609186-.89131-282.543748-229.956744-511.609184-511.609186-511.609184zm0 974.196581c-255.804592 0-463.4787033-207.674111-463.4787033-463.478703 0-255.804591 207.6741113-463.4787025 463.4787033-463.4787025 255.804591 0 463.478702 207.6741115 463.478702 463.4787025-.891305 256.695897-207.674111 463.478703-463.478702 463.478703z" fill="#d8d8d8"/><path d="m511.609184 39.2174287c130.130558 0 247.782845 52.5870067 333.348144 138.1523053 85.565299 85.565299 138.152305 203.217585 138.152305 333.348144s-52.587006 247.782845-138.152305 333.348144-203.217586 139.043611-333.348144 139.043611c-130.130559 0-247.782845-52.587006-333.348144-138.152305-85.5652994-85.565299-139.0436113-203.217586-139.0436113-333.348144 0-130.130559 52.5870067-247.782845 138.1523053-333.348144 85.565299-85.5652994 203.217585-139.0436113 334.23945-139.0436113z" fill="#aaa"/><path d="m832.479055 189.848007c-82.000078-82.891383-195.195839-133.6957795-320.869871-133.6957795-125.674033 0-238.869793 50.8043965-321.761177 132.8044745-82.891383 82.891383-133.6957795 196.978449-133.6957795 322.652482 0 125.674032 50.8043965 238.869793 133.6957795 320.869871 82.000078 82.000078 196.087144 132.804474 321.761177 132.804474 125.674032 0 238.869793-50.804396 321.761176-132.804474 82.000078-82.000078 132.804474-196.087144 132.804474-321.761177s-50.804396-238.869793-133.695779-320.869871z" fill="#fff"/><path d="m288.782884 616.783197 15.152188-8.913052 97.152267 168.456682-15.152188 8.913052z" fill="url(#a)"/><path d="m250.456761 298.587241h16.934798v174.695819h-16.934798z" fill="url(#b)"/><path d="m318.195956 500.913521-12.478273-12.478273 117.652286-116.760981 11.586968 11.586968z" fill="url(#c)"/><path d="m334.239449 539.239645h222.8263v16.934798h-222.8263z" fill="url(#d)"/><path d="m319.978566 592.717957 8.021747-15.152189 258.478507 148.847968-8.913052 15.152189z" fill="url(#e)"/><path d="m459.022177 811.08773-6.239136-16.043494 124.782727-45.456565 5.347831 16.043494z" fill="url(#f)"/><path d="m765.631165 708.587632 2.673916 16.934799-134.587085 25.847851-2.673916-16.934799z" fill="url(#g)"/><path d="m444.761294 189.848007 6.239136 16.043494-163.108851 63.282669-6.239136-16.043494z" fill="url(#h)"/><path d="m472.391755 303.935072-16.934799-1.78261 7.130442-87.347909 16.934798 1.78261z" fill="url(#i)"/><path d="m758.500723 305.717683-6.239136 15.152188-256.695897-113.19576 6.239136-16.043493z" fill="url(#j)"/><path d="m751.370282 324.435092.891305 17.826104-248.67415 11.586968-.891305-17.826104z" fill="url(#k)"/><path d="m578.457073 575.783158 17.826104-1.782611 15.152189 147.065358-16.934799 1.78261z" fill="url(#l)"/><path d="m475.06567 388.609066 15.152189-9.804357 87.347909 140.826221-15.152188 9.804358z" fill="url(#m)"/><path d="m779.892048 372.565573 16.934799 2.673915-17.826104 118.543592-16.934799-2.673916z" fill="url(#n)"/><path d="m719.283295 529.435288 1.78261 17.826103-107.847929 7.130442-1.78261-16.934799z" fill="url(#o)"/><path d="m762.065944 579.348379 16.934799-2.673916 18.717409 106.956624-16.934799 2.673915z" fill="url(#p)"/><path d="m266.500254 469.717839c42.78265 4.456526 74.869637 41.891345 70.413111 85.565299-4.456526 42.78265-41.891345 74.869637-85.565299 70.413111-42.78265-4.456526-74.869637-41.891344-70.413111-85.565299 4.456526-42.78265 42.78265-74.869637 85.565299-70.413111z" fill="#f89200"/><path d="m768.305081 488.435248c25.84785 2.673916 44.565259 24.956546 42.782649 50.804397-2.673916 25.84785-24.956546 44.56526-50.804396 42.782649-25.847851-2.673915-44.56526-24.956545-42.78265-50.804396 1.782611-25.847851 24.956546-44.56526 50.804397-42.78265z" fill="#00bc9b"/><path d="m799.500762 284.326358c25.847851 2.673916 44.56526 24.956546 42.78265 50.804396-2.673916 25.847851-24.956546 44.56526-50.804396 42.78265-25.847851-2.673916-44.56526-24.956546-42.78265-50.804396 1.782611-25.847851 24.956546-45.456565 50.804396-42.78265z" fill="#f8bf00"/><path d="m475.956976 156.869715c16.934798 1.78261 30.304376 16.934799 28.521766 33.869597-1.78261 16.934799-16.934799 30.304377-33.869598 28.521767-16.934798-1.782611-30.304376-16.934799-28.521766-33.869598 1.782611-16.934799 16.934799-29.413071 33.869598-28.521766z" fill="#5cd551"/><path d="m795.935542 680.957171c16.934798 1.782611 30.304376 16.934799 28.521766 33.869598-1.78261 16.934798-16.934799 30.304376-33.869598 28.521766-16.934798-1.78261-30.304376-16.934799-28.521766-33.869598 1.782611-17.826103 16.934799-30.304376 33.869598-28.521766z" fill="#ff4c9f"/><path d="m369.000352 826.239918c-4.456526-25.84785 13.369578-49.913091 38.326123-54.369617 25.847851-4.456526 49.913091 13.369578 54.369617 38.326124 4.456526 25.847851-13.369577 49.913091-38.326123 54.369617-25.847851 4.456526-49.913091-12.478273-54.369617-38.326124z" fill="#00bef2"/><path d="m288.782884 281.652443c-6.239136 16.043493-24.06524 24.06524-40.108734 18.717409-16.934799-6.239137-24.956545-24.065241-18.717409-40.108734 6.239136-16.043494 24.06524-24.065241 40.108734-18.717409 16.043494 6.239136 24.06524 24.06524 18.717409 40.108734z" fill="#ce0003"/><path d="m479.522196 389.500371c-23.173935 10.695663-51.695701 0-62.391363-23.173935-10.695663-23.173935 0-51.695701 23.173935-62.391364 23.173935-10.695662 51.695701 0 62.391364 23.173936 10.695662 24.06524 0 51.695701-23.173936 62.391363z" fill="#aaa"/><path d="m574.000547 576.674463c-16.043493-6.239136-24.06524-24.06524-18.717409-40.108734 6.239137-16.043493 24.065241-24.06524 40.108734-18.717409 16.043494 6.239136 24.06524 24.06524 18.717409 40.108734-6.239136 16.934799-24.06524 24.956545-40.108734 18.717409z" fill="#3273e2"/><path d="m582.022294 767.413775c-10.695662-13.369578-8.913052-32.978292 4.456526-43.673954 13.369578-10.695663 32.978292-8.913052 43.673955 4.456526 10.695662 13.369578 8.913052 32.978292-4.456526 43.673954-13.369578 10.695663-32.978292 8.913052-43.673955-4.456526z" fill="#a680d0"/></g></svg>

<?xml version="1.0" encoding="UTF-8"?>
<svg width="1024px" height="1024px" viewBox="0 0 1024 1024" version="1.1" xmlns="http://www.w3.org/2000/svg" xmlns:xlink="http://www.w3.org/1999/xlink">
    <!-- Generator: Sketch 63.1 (92452) - https://sketch.com -->
    <title>coinomi-logo</title>
    <desc>Created with Sketch.</desc>
    <defs>
        <linearGradient x1="33.9392238%" y1="6.06733668%" x2="66.1670463%" y2="94.2231156%" id="linearGradient-1">
            <stop stop-color="#F89200" offset="0%"></stop>
            <stop stop-color="#00BEF2" offset="100%"></stop>
        </linearGradient>
        <linearGradient x1="50%" y1="99.622449%" x2="50%" y2="-0.147959184%" id="linearGradient-2">
            <stop stop-color="#F89200" offset="0%"></stop>
            <stop stop-color="#CC1F25" offset="100%"></stop>
        </linearGradient>
        <linearGradient x1="9.2%" y1="90.8%" x2="91.2758621%" y2="8.71724138%" id="linearGradient-3">
            <stop stop-color="#F89200" offset="0%"></stop>
            <stop stop-color="#AAAAAA" offset="100%"></stop>
        </linearGradient>
        <linearGradient x1="0%" y1="50%" x2="100.18%" y2="50%" id="linearGradient-4">
            <stop stop-color="#F89200" offset="0%"></stop>
            <stop stop-color="#3273E2" offset="100%"></stop>
        </linearGradient>
        <linearGradient x1="3.8458194%" y1="33.6171855%" x2="96.0799331%" y2="66.3869308%" id="linearGradient-5">
            <stop stop-color="#F89200" offset="0%"></stop>
            <stop stop-color="#A680D0" offset="100%"></stop>
        </linearGradient>
        <linearGradient x1="6.28630137%" y1="57.6759101%" x2="94.1082192%" y2="42.254818%" id="linearGradient-6">
            <stop stop-color="#00BEF2" offset="0%"></stop>
            <stop stop-color="#A680D0" offset="100%"></stop>
        </linearGradient>
        <linearGradient x1="96.8571429%" y1="47.2103896%" x2="3.26623377%" y2="52.7823242%" id="linearGradient-7">
            <stop stop-color="#FF4C9F" offset="0%"></stop>
            <stop stop-color="#A680D0" offset="100%"></stop>
        </linearGradient>
        <linearGradient x1="95.0947368%" y1="41.8706759%" x2="5.02631579%" y2="58.1076288%" id="linearGradient-8">
            <stop stop-color="#5CD551" offset="0%"></stop>
            <stop stop-color="#CE0003" offset="100%"></stop>
        </linearGradient>
        <linearGradient x1="48.9335%" y1="97.617%" x2="51.0665%" y2="2.377%" id="linearGradient-9">
            <stop stop-color="#AAAAAA" offset="0%"></stop>
            <stop stop-color="#A2AEA1" offset="18.4%"></stop>
            <stop stop-color="#8DBA89" offset="48.4%"></stop>
            <stop stop-color="#6ACD61" offset="86.1%"></stop>
            <stop stop-color="#5CD551" offset="100%"></stop>
        </linearGradient>
        <linearGradient x1="96.6532203%" y1="60.2302269%" x2="3.28711864%" y2="39.877742%" id="linearGradient-10">
            <stop stop-color="#F8BF00" offset="0%"></stop>
            <stop stop-color="#5CD551" offset="100%"></stop>
        </linearGradient>
        <linearGradient x1="99.5810714%" y1="49.726824%" x2="0.498928571%" y2="50.2727551%" id="linearGradient-11">
            <stop stop-color="#F8BF00" offset="0%"></stop>
            <stop stop-color="#B6AD91" offset="60%"></stop>
            <stop stop-color="#AAAAAA" offset="100%"></stop>
        </linearGradient>
        <linearGradient x1="48.897655%" y1="1.67125749%" x2="51.1822116%" y2="98.4916168%" id="linearGradient-12">
            <stop stop-color="#3273E2" offset="0%"></stop>
            <stop stop-color="#A680D0" offset="99%"></stop>
        </linearGradient>
        <linearGradient x1="31.946518%" y1="7.31183432%" x2="68.0720038%" y2="92.7319527%" id="linearGradient-13">
            <stop stop-color="#AAAAAA" offset="0%"></stop>
            <stop stop-color="#3273E2" offset="100%"></stop>
        </linearGradient>
        <linearGradient x1="52.030758%" y1="3.19411765%" x2="47.9717723%" y2="96.7529412%" id="linearGradient-14">
            <stop stop-color="#F8BF00" offset="0%"></stop>
            <stop stop-color="#00BC9B" offset="100%"></stop>
        </linearGradient>
        <linearGradient x1="98.195122%" y1="49.2756164%" x2="1.99186992%" y2="50.8080375%" id="linearGradient-15">
            <stop stop-color="#00BC9B" offset="0%"></stop>
            <stop stop-color="#3273E2" offset="99%"></stop>
        </linearGradient>
        <linearGradient x1="47.4552185%" y1="3.88130081%" x2="52.5500694%" y2="96.2146341%" id="linearGradient-16">
            <stop stop-color="#00BC9B" offset="0%"></stop>
            <stop stop-color="#FF4C9F" offset="100%"></stop>
        </linearGradient>
    </defs>
    <g id="Page-1" stroke="none" stroke-width="1" fill="none" fill-rule="evenodd">
        <g id="coinomi-logo" fill-rule="nonzero">
            <path d="M511.609184,0 C229.065436,0 0,229.065436 0,511.609184 C0,794.152931 229.065436,1023.21837 511.609184,1023.21837 C794.152931,1023.21837 1023.21837,794.152931 1023.21837,511.609184 C1022.32706,229.065436 793.261626,0 511.609184,0 Z M511.609184,974.196581 C255.804592,974.196581 48.1304807,766.52247 48.1304807,510.717878 C48.1304807,254.913287 255.804592,47.2391755 511.609184,47.2391755 C767.413775,47.2391755 975.087886,254.913287 975.087886,510.717878 C974.196581,767.413775 767.413775,974.196581 511.609184,974.196581 Z" id="Shape" fill="#D8D8D8"></path>
            <path d="M511.609184,39.2174287 C641.739742,39.2174287 759.392029,91.8044354 844.957328,177.369734 C930.522627,262.935033 983.109633,380.587319 983.109633,510.717878 C983.109633,640.848437 930.522627,758.500723 844.957328,844.066022 C759.392029,929.631321 641.739742,983.109633 511.609184,983.109633 C381.478625,983.109633 263.826339,930.522627 178.26104,844.957328 C92.6957406,759.392029 39.2174287,641.739742 39.2174287,511.609184 C39.2174287,381.478625 91.8044354,263.826339 177.369734,178.26104 C262.935033,92.6957406 380.587319,39.2174287 511.609184,39.2174287 Z" id="Path" fill="#AAAAAA"></path>
            <path d="M832.479055,189.848007 C750.478977,106.956624 637.283216,56.1522275 511.609184,56.1522275 C385.935151,56.1522275 272.739391,106.956624 189.848007,188.956702 C106.956624,271.848085 56.1522275,385.935151 56.1522275,511.609184 C56.1522275,637.283216 106.956624,750.478977 189.848007,832.479055 C271.848085,914.479133 385.935151,965.283529 511.609184,965.283529 C637.283216,965.283529 750.478977,914.479133 833.37036,832.479055 C915.370438,750.478977 966.174834,636.391911 966.174834,510.717878 C966.174834,385.043845 915.370438,271.848085 832.479055,189.848007 Z" id="Path" fill="#FFFFFF"></path>
            <polygon id="Path" fill="url(#linearGradient-1)" points="288.782884 616.783197 303.935072 607.870145 401.087339 776.326827 385.935151 785.239879"></polygon>
            <polygon id="Path" fill="url(#linearGradient-2)" points="250.456761 298.587241 267.391559 298.587241 267.391559 473.28306 250.456761 473.28306"></polygon>
            <polygon id="Path" fill="url(#linearGradient-3)" points="318.195956 500.913521 305.717683 488.435248 423.369969 371.674267 434.956937 383.261235"></polygon>
            <polygon id="Path" fill="url(#linearGradient-4)" points="334.239449 539.239645 557.065749 539.239645 557.065749 556.174443 334.239449 556.174443"></polygon>
            <polygon id="Path" fill="url(#linearGradient-5)" points="319.978566 592.717957 328.000313 577.565768 586.47882 726.413736 577.565768 741.565925"></polygon>
            <polygon id="Path" fill="url(#linearGradient-6)" points="459.022177 811.08773 452.783041 795.044236 577.565768 749.587671 582.913599 765.631165"></polygon>
            <polygon id="Path" fill="url(#linearGradient-7)" points="765.631165 708.587632 768.305081 725.522431 633.717996 751.370282 631.04408 734.435483"></polygon>
            <polygon id="Path" fill="url(#linearGradient-8)" points="444.761294 189.848007 451.00043 205.891501 287.891579 269.17417 281.652443 253.130676"></polygon>
            <polygon id="Path" fill="url(#linearGradient-9)" points="472.391755 303.935072 455.456956 302.152462 462.587398 214.804553 479.522196 216.587163"></polygon>
            <polygon id="Path" fill="url(#linearGradient-10)" points="758.500723 305.717683 752.261587 320.869871 495.56569 207.674111 501.804826 191.630618"></polygon>
            <polygon id="Path" fill="url(#linearGradient-11)" points="751.370282 324.435092 752.261587 342.261196 503.587437 353.848164 502.696132 336.02206"></polygon>
            <polygon id="Path" fill="url(#linearGradient-12)" points="578.457073 575.783158 596.283177 574.000547 611.435366 721.065905 594.500567 722.848515"></polygon>
            <polygon id="Path" fill="url(#linearGradient-13)" points="475.06567 388.609066 490.217859 378.804709 577.565768 519.63093 562.41358 529.435288"></polygon>
            <polygon id="Path" fill="url(#linearGradient-14)" points="779.892048 372.565573 796.826847 375.239488 779.000743 493.78308 762.065944 491.109164"></polygon>
            <polygon id="Path" fill="url(#linearGradient-15)" points="719.283295 529.435288 721.065905 547.261391 613.217976 554.391833 611.435366 537.457034"></polygon>
            <polygon id="Path" fill="url(#linearGradient-16)" points="762.065944 579.348379 779.000743 576.674463 797.718152 683.631087 780.783353 686.305002"></polygon>
            <path d="M266.500254,469.717839 C309.282904,474.174365 341.369891,511.609184 336.913365,555.283138 C332.456839,598.065788 295.02202,630.152775 251.348066,625.696249 C208.565416,621.239723 176.478429,583.804905 180.934955,540.13095 C185.391481,497.3483 223.717605,465.261313 266.500254,469.717839 Z" id="Path" fill="#F89200"></path>
            <path d="M768.305081,488.435248 C794.152931,491.109164 812.87034,513.391794 811.08773,539.239645 C808.413814,565.087495 786.131184,583.804905 760.283334,582.022294 C734.435483,579.348379 715.718074,557.065749 717.500684,531.217898 C719.283295,505.370047 742.45723,486.652638 768.305081,488.435248 Z" id="Path" fill="#00BC9B"></path>
            <path d="M799.500762,284.326358 C825.348613,287.000274 844.066022,309.282904 842.283412,335.130754 C839.609496,360.978605 817.326866,379.696014 791.479016,377.913404 C765.631165,375.239488 746.913756,352.956858 748.696366,327.109008 C750.478977,301.261157 773.652912,281.652443 799.500762,284.326358 Z" id="Path" fill="#F8BF00"></path>
            <path d="M475.956976,156.869715 C492.891774,158.652325 506.261352,173.804514 504.478742,190.739312 C502.696132,207.674111 487.543943,221.043689 470.609144,219.261079 C453.674346,217.478468 440.304768,202.32628 442.087378,185.391481 C443.869989,168.456682 459.022177,155.97841 475.956976,156.869715 Z" id="Path" fill="#5CD551"></path>
            <path d="M795.935542,680.957171 C812.87034,682.739782 826.239918,697.89197 824.457308,714.826769 C822.674698,731.761567 807.522509,745.131145 790.58771,743.348535 C773.652912,741.565925 760.283334,726.413736 762.065944,709.478937 C763.848555,691.652834 779.000743,679.174561 795.935542,680.957171 Z" id="Path" fill="#FF4C9F"></path>
            <path d="M369.000352,826.239918 C364.543826,800.392068 382.36993,776.326827 407.326475,771.870301 C433.174326,767.413775 457.239566,785.239879 461.696092,810.196425 C466.152618,836.044276 448.326515,860.109516 423.369969,864.566042 C397.522118,869.022568 373.456878,852.087769 369.000352,826.239918 Z" id="Path" fill="#00BEF2"></path>
            <path d="M288.782884,281.652443 C282.543748,297.695936 264.717644,305.717683 248.67415,300.369852 C231.739351,294.130715 223.717605,276.304611 229.956741,260.261118 C236.195877,244.217624 254.021981,236.195877 270.065475,241.543709 C286.108969,247.782845 294.130715,265.608949 288.782884,281.652443 Z" id="Path" fill="#CE0003"></path>
            <path d="M479.522196,389.500371 C456.348261,400.196034 427.826495,389.500371 417.130833,366.326436 C406.43517,343.152501 417.130833,314.630735 440.304768,303.935072 C463.478703,293.23941 492.000469,303.935072 502.696132,327.109008 C513.391794,351.174248 502.696132,378.804709 479.522196,389.500371 Z" id="Path" fill="#AAAAAA"></path>
            <path d="M574.000547,576.674463 C557.957054,570.435327 549.935307,552.609223 555.283138,536.565729 C561.522275,520.522236 579.348379,512.500489 595.391872,517.84832 C611.435366,524.087456 619.457112,541.91356 614.109281,557.957054 C607.870145,574.891853 590.044041,582.913599 574.000547,576.674463 Z" id="Path" fill="#3273E2"></path>
            <path d="M582.022294,767.413775 C571.326632,754.044197 573.109242,734.435483 586.47882,723.739821 C599.848398,713.044158 619.457112,714.826769 630.152775,728.196347 C640.848437,741.565925 639.065827,761.174639 625.696249,771.870301 C612.326671,782.565964 592.717957,780.783353 582.022294,767.413775 Z" id="Path" fill="#A680D0"></path>
        </g>
    </g>
</svg>
